app/images/icons/message.svg

<svg fill="none" height="14" viewBox="0 0 18 14" width="18" xmlns="http://www.w3.org/2000/svg"><path d="m17.6484 4.96484c-.8086.63282-1.8281 1.40625-5.414 4.00782-.7032.52734-2.0039 1.68754-3.2344 1.68754-1.26562 0-2.53125-1.1602-3.26953-1.68754-3.58594-2.60157-4.60547-3.375-5.414064-4.00782-.140625-.10546-.316406 0-.316406.17578v7.17188c0 .9492.738281 1.6875 1.6875 1.6875h14.625c.9141 0 1.6875-.7383 1.6875-1.6875v-7.17188c0-.17578-.2109-.28124-.3516-.17578zm-8.6484 4.53516c.80859.03516 1.9688-1.01953 2.5664-1.44141 4.6758-3.375 5.0274-3.6914 6.082-4.53515.211-.14063.3516-.38672.3516-.66797v-.66797c0-.91406-.7734-1.6875-1.6875-1.6875h-14.625c-.949219 0-1.6875.77344-1.6875 1.6875v.66797c0 .28125.105469.52734.316406.66797 1.054684.84375 1.406254 1.16015 6.082034 4.53515.59765.42188 1.75781 1.47657 2.60156 1.44141z" fill="#b3b3b3"/></svg>

<svg width="18" height="14" viewBox="0 0 18 14" fill="none" xmlns="http://www.w3.org/2000/svg">
<path d="M17.6484 4.96484C16.8398 5.59766 15.8203 6.37109 12.2344 8.97266C11.5312 9.5 10.2305 10.6602 9 10.6602C7.73438 10.6602 6.46875 9.5 5.73047 8.97266C2.14453 6.37109 1.125 5.59766 0.316406 4.96484C0.175781 4.85938 0 4.96484 0 5.14062V12.3125C0 13.2617 0.738281 14 1.6875 14H16.3125C17.2266 14 18 13.2617 18 12.3125V5.14062C18 4.96484 17.7891 4.85938 17.6484 4.96484ZM9 9.5C9.80859 9.53516 10.9688 8.48047 11.5664 8.05859C16.2422 4.68359 16.5938 4.36719 17.6484 3.52344C17.8594 3.38281 18 3.13672 18 2.85547V2.1875C18 1.27344 17.2266 0.5 16.3125 0.5H1.6875C0.738281 0.5 0 1.27344 0 2.1875V2.85547C0 3.13672 0.105469 3.38281 0.316406 3.52344C1.37109 4.36719 1.72266 4.68359 6.39844 8.05859C6.99609 8.48047 8.15625 9.53516 9 9.5Z" fill="#B3B3B3"/>
</svg>
